X: 402
T: The Bonny wi thing
R: jig
B: Robert Bremner "A Collection of Scots Reels or Country Dances" 1757 p.40 #2
S: http://imslp.org/wiki/A_Collection_of_Scots_Reels_or_Country_Dances_(Bremner,_Robert)
Z: 2013 John Chambers <jc:trillian.mit.edu>
M: 6/8
L: 1/8
K: C
% - - - - - - - - - - - - - - - - - - - - - - - - -
V: 1
|:\
fcA AcA | fcA Aag |\
fcA AcA | B2G (B/c/d)B :|\
|:\
c2g gea | gec (e/f/g)e |
c2g gec | dBG (B/c/d)B |\
c2g gea | gec (e/f/g)e |\
afd gec | dBG (B/c/d)B :|
% - - - - - - - - - - - - - - - - - - - - - - - - -
V: 2 clef=bass middle=d
|:\
a3 a3 | a3 a3 |\
a3 a3 | g3 g3 :|\
|:\
c3 c3 | c3 c3 |
c3 c3 | G3 G3 |\
c3 c3 | c3 c3 |\
d3 c3 | G3 G3 :|
% - - - - - - - - - - - - - - - - - - - - - - - - -

%%sep 1 1 500
%%sep 1 1 500
